icons/lactose_free_fill.svg

<svg width="48" height="48" viewBox="0 0 48 48" fill="none" xmlns="http://www.w3.org/2000/svg">
<path fill-rule="evenodd" clip-rule="evenodd" d="M24 42C33.9411 42 42 33.9411 42 24C42 14.0589 33.9411 6 24 6C14.0589 6 6 14.0589 6 24C6 33.9411 14.0589 42 24 42ZM24 44C35.0457 44 44 35.0457 44 24C44 12.9543 35.0457 4 24 4C12.9543 4 4 12.9543 4 24C4 35.0457 12.9543 44 24 44Z" fill="black"/>
<path fill-rule="evenodd" clip-rule="evenodd" d="M19.2 11.2174C19.2 10 19.8 10 21.6 10H26.4C28.2 10 28.8 10 28.8 11.2174C28.8 12.4348 27.6 13.0435 27.6 13.0435L30 22.1739V35.5652C30 36.9099 28.9255 38 27.6 38H20.4C19.0745 38 18 36.9099 18 35.5652V22.1739L20.4 13.0435C20.4 13.0435 19.2 12.4348 19.2 11.2174ZM24 23.5532C22.6667 22.3085 20 23.5532 20 23.5532V35C20 35.5523 20.4477 36 21 36H27C27.5523 36 28 35.5523 28 35V24.7979C28 24.7979 25.3333 24.7979 24 23.5532Z" fill="black"/>
<path fill-rule="evenodd" clip-rule="evenodd" d="M10.2929 9.79289C10.6834 9.40237 11.3166 9.40237 11.7071 9.79289L17.2071 15.2929C17.5976 15.6834 17.5976 16.3166 17.2071 16.7071C16.8166 17.0976 16.1834 17.0976 15.7929 16.7071L10.2929 11.2071C9.90237 10.8166 9.90237 10.1834 10.2929 9.79289Z" fill="black"/>
<path fill-rule="evenodd" clip-rule="evenodd" d="M37.2929 38.7071L28.2929 29.7071L29.7071 28.2929L38.7071 37.2929L37.2929 38.7071Z" fill="black"/>
</svg>

<svg
  xmlns="http://www.w3.org/2000/svg"
  width="24"
  height="24"
  viewBox="0 0 24 24"
  fill="none"
  stroke="currentColor"
  stroke-width="2"
  stroke-linecap="round"
  stroke-linejoin="round"
>
  <path
    fill-rule="evenodd"
    d="M24 42c9.941 0 18-8.059 18-18S33.941 6 24 6 6 14.059 6 24s8.059 18 18 18m0 2c11.046 0 20-8.954 20-20S35.046 4 24 4 4 12.954 4 24s8.954 20 20 20"
    clip-rule="evenodd"
  />
  <path
    fill-rule="evenodd"
    d="M19.2 11.217C19.2 10 19.8 10 21.6 10h4.8c1.8 0 2.4 0 2.4 1.217s-1.2 1.826-1.2 1.826l2.4 9.13v13.392C30 36.91 28.925 38 27.6 38h-7.2c-1.325 0-2.4-1.09-2.4-2.435V22.174l2.4-9.13s-1.2-.61-1.2-1.827M24 23.553c-1.333-1.245-4 0-4 0V35a1 1 0 0 0 1 1h6a1 1 0 0 0 1-1V24.798s-2.667 0-4-1.245"
    clip-rule="evenodd"
  />
  <path
    fill-rule="evenodd"
    d="M10.293 9.793a1 1 0 0 1 1.414 0l5.5 5.5a1 1 0 0 1-1.414 1.414l-5.5-5.5a1 1 0 0 1 0-1.414"
    clip-rule="evenodd"
  />
  <path
    fill-rule="evenodd"
    d="m37.293 38.707-9-9 1.414-1.414 9 9z"
    clip-rule="evenodd"
  />
</svg>
